images/logo6_dark.svg

<?xml version="1.0" encoding="UTF-8" standalone="no"?>
<svg width="150px" height="60px" viewBox="0 0 150 60" version="1.1" xmlns="http://www.w3.org/2000/svg" xmlns:xlink="http://www.w3.org/1999/xlink" xmlns:sketch="http://www.bohemiancoding.com/sketch/ns">
    <!-- Generator: Sketch 3.3.3 (12081) - http://www.bohemiancoding.com/sketch -->
    <title>logo6_dark</title>
    <desc>Created with Sketch.</desc>
    <defs></defs>
    <g id="Page-1" stroke="none" stroke-width="1" fill="none" fill-rule="evenodd" sketch:type="MSPage">
        <g id="logo6_dark" sketch:type="MSArtboardGroup">
            <path d="M113.961675,10.8794222 L146.638571,10.8794222 L146.638571,50.5979407 L3.63857086,50.5979407 L3.63857086,10.8794222 L36.3077119,10.8794222" id="Shape" stroke-opacity="0.300000012" stroke="#000000" stroke-width="3" sketch:type="MSShapeGroup"></path>
            <path d="M122.924094,28.3090074 C123.265722,28.5098815 123.958285,28.7605333 125.001678,29.0617926 C126.240288,29.4128296 127.126412,29.7369037 127.659845,30.0356741 C128.194208,30.3327852 128.61659,30.6796741 128.927095,31.0754074 C129.238428,31.4704148 129.476555,31.9447556 129.641475,32.4949037 C129.805568,33.0451556 129.88808,33.6798222 129.88808,34.3972444 C129.88808,36.0867852 129.420202,37.378 128.48362,38.2708889 C127.54714,39.1637778 126.172975,39.6110519 124.361332,39.6110519 C122.707888,39.6110519 121.411168,39.2194667 120.472104,38.4362963 C119.532213,37.6531259 118.928883,36.4657185 118.660461,34.8749037 L121.268168,34.2993481 C121.444876,35.2132889 121.789813,35.8757481 122.302256,36.2876593 C122.814698,36.7002963 123.524942,36.9062519 124.434538,36.9062519 C126.319388,36.9062519 127.261864,36.1390519 127.261864,34.6056889 C127.261864,34.1162074 127.153296,33.7119704 126.93709,33.394637 C126.72078,33.0755407 126.415341,32.8105778 126.022324,32.5987111 C125.628583,32.3869481 124.873774,32.1295556 123.757175,31.8281926 C122.792881,31.5261037 122.122239,31.2830222 121.743594,31.0990519 C121.365777,30.9167407 121.024148,30.6998963 120.718709,30.4509037 C120.414098,30.2028444 120.154878,29.9023111 119.941153,29.5512741 C119.727429,29.2010667 119.561681,28.7883259 119.442153,28.3157481 C119.323555,27.8431704 119.26379,27.2996593 119.26379,26.688637 C119.26379,25.1298667 119.7022,23.9373778 120.57726,23.1085778 C121.452424,22.2807111 122.726396,21.8663111 124.397521,21.8663111 C125.996268,21.8663111 127.196206,22.2013778 127.998991,22.8706815 C128.800846,23.5390519 129.317528,24.644637 129.549761,26.1865037 L126.93285,26.6633333 C126.798226,25.921437 126.525564,25.3619556 126.113211,24.9872741 C125.701789,24.6124889 125.111074,24.4243704 124.342824,24.4243704 C122.707888,24.4243704 121.890007,25.1096444 121.890007,26.4801926 C121.890007,26.9282963 121.977482,27.296237 122.150777,27.5815259 C122.325004,27.8668148 122.582466,28.1097926 122.924094,28.3090074 L122.924094,28.3090074 Z M111.432291,28.3765185 L111.194165,22.1237037 L113.683275,22.1237037 L113.43667,28.3765185 L111.432291,28.3765185 L111.432291,28.3765185 Z M101.834644,39.3663111 L99.1445278,39.3663111 L99.1445278,32.2923704 L94.5509501,22.1237037 L97.3782762,22.1237037 L100.47144,29.4170815 L103.600896,22.1237037 L106.428222,22.1237037 L101.834644,32.2923704 L101.834644,39.3663111 L101.834644,39.3663111 Z M87.93035,32.5810815 C87.2261034,33.0569778 86.3888865,33.2967407 85.4185958,33.2967407 L82.2160369,33.2967407 L82.2160369,39.3663111 L79.5166146,39.3663111 L79.5166146,22.1237037 L85.3092003,22.1237037 C86.8525249,22.1237037 88.0406761,22.5988741 88.8736537,23.5491111 C89.7059074,24.4994519 90.1223962,25.8438667 90.1223962,27.5815259 C90.1223962,28.6904296 89.9330738,29.6820444 89.555256,30.5555407 C89.176611,31.4282074 88.6355271,32.1033185 87.93035,32.5810815 L87.93035,32.5810815 Z M85.0071735,24.9265037 L82.2160369,24.9265037 L82.2160369,30.5184148 L85.0803796,30.5184148 C85.8242278,30.5184148 86.3980889,30.2720148 86.8003087,29.7774519 C87.2033557,29.2845481 87.4044657,28.5723111 87.4044657,27.6422963 C87.4044657,25.8312148 86.6050926,24.9265037 85.0071735,24.9265037 L85.0071735,24.9265037 Z M71.963671,32.5810815 C71.2594244,33.0569778 70.4222075,33.2967407 69.4519168,33.2967407 L66.2493579,33.2967407 L66.2493579,39.3663111 L63.5499356,39.3663111 L63.5499356,22.1237037 L69.3426247,22.1237037 C70.885846,22.1237037 72.0739971,22.5988741 72.9069747,23.5491111 C73.7392285,24.4994519 74.1557173,25.8438667 74.1557173,27.5815259 C74.1557173,28.6904296 73.9663948,29.6820444 73.588577,30.5555407 C73.209932,31.4282074 72.6688482,32.1033185 71.963671,32.5810815 L71.963671,32.5810815 Z M69.0404946,24.9265037 L66.2493579,24.9265037 L66.2493579,30.5184148 L69.1137007,30.5184148 C69.8575488,30.5184148 70.43141,30.2720148 70.8336298,29.7774519 C71.2366768,29.2845481 71.4377867,28.5723111 71.4377867,27.6422963 C71.4377867,25.8312148 70.6384136,24.9265037 69.0404946,24.9265037 L69.0404946,24.9265037 Z M54.8762567,22.1237037 L57.5755756,22.1237037 L57.5755756,39.3663111 L54.8762567,39.3663111 L54.8762567,22.1237037 L54.8762567,22.1237037 Z M46.1923413,31.975037 L40.5739819,31.975037 L40.5739819,39.3663111 L37.8745597,39.3663111 L37.8745597,22.1237037 L40.5739819,22.1237037 L40.5739819,28.9892 L46.1923413,28.9892 L46.1923413,22.1237037 L48.8917636,22.1237037 L48.8917636,39.3663111 L46.1923413,39.3663111 L46.1923413,31.975037 L46.1923413,31.975037 Z M26.8951996,36.7720593 C28.5234143,36.7720593 29.6552133,35.6782963 30.2896659,33.4925333 L32.6415662,34.6791111 C32.1350174,36.3433481 31.3928236,37.581363 30.4133304,38.3924296 C29.4338373,39.2043259 28.2617129,39.6110519 26.8951996,39.6110519 C24.8210275,39.6110519 23.2180419,38.8253926 22.086243,37.2548 C20.9545474,35.685037 20.3890615,33.4874519 20.3890615,30.6652593 C20.3890615,27.8346667 20.9342813,25.6607259 22.0264787,24.1433333 C23.1187795,22.625837 24.7014989,21.8663111 26.775671,21.8663111 C28.2886999,21.8663111 29.5214158,22.2731407 30.4730947,23.085037 C31.4247737,23.896 32.0929342,25.0893185 32.4766457,26.6633333 L30.0977585,27.5325778 C29.8966486,26.6684148 29.5012531,25.9805481 28.9130195,25.4700148 C28.3239588,24.9602074 27.6298453,24.7054074 26.8312993,24.7054074 C25.6102675,24.7054074 24.6847484,25.2116889 24.0536045,26.2228 C23.4224606,27.234637 23.1061649,28.7157333 23.1061649,30.6652593 C23.1061649,32.6476593 23.4309393,34.1609037 24.0814187,35.2057185 C24.7309675,36.2497037 25.6683774,36.7720593 26.8951996,36.7720593 L26.8951996,36.7720593 Z" id="Shape" fill-opacity="0.3" fill="#000000" sketch:type="MSShapeGroup"></path>
            <path d="M105.309865,11.5347259 L106.487883,13.3280741 L105.839988,13.3280741 L104.76206,11.5996444 L103.468753,11.5996444 L103.468753,13.3280741 L102.906679,13.3280741 L102.906679,9.16571852 L104.858841,9.16571852 C105.326719,9.16571852 105.687683,9.27035556 105.941836,9.47973333 C106.195886,9.69066667 106.322962,9.98186667 106.322962,10.3557185 C106.322962,10.6653778 106.233006,10.925363 106.053713,11.1354667 C105.873696,11.3465037 105.626264,11.4798667 105.309865,11.5347259 L105.309865,11.5347259 Z M105.511802,9.80878519 C105.347709,9.6805037 105.11134,9.61807407 104.803316,9.61807407 L103.468753,9.61807407 L103.468753,11.1540296 L104.826891,11.1540296 C105.123024,11.1540296 105.352775,11.0848593 105.514387,10.9447556 C105.676722,10.8064148 105.75758,10.6122815 105.75758,10.3624593 C105.75758,10.1193778 105.675895,9.93540741 105.511802,9.80878519 L105.511802,9.80878519 Z M100.043163,12.1111111 L98.1524201,12.1111111 L97.6753398,13.3280741 L97.0921728,13.3280741 L98.7852184,9.16571852 L99.4247375,9.16571852 L101.091623,13.3280741 L100.516935,13.3280741 L100.043163,12.1111111 L100.043163,12.1111111 Z M99.3422256,10.2966074 C99.2875278,10.1615852 99.2320029,10.008 99.1773051,9.83585185 L99.0982054,9.59111111 L99.0713218,9.67376296 C99.0225177,9.83751111 98.9493116,10.0467852 98.8533579,10.3033481 L98.3232343,11.6705778 L99.8757614,11.6705778 L99.3422256,10.2966074 L99.3422256,10.2966074 Z M95.453825,12.1549778 C95.453825,12.5246815 95.3192003,12.8132889 95.050778,13.0191407 C94.7815286,13.2250963 94.4071229,13.3280741 93.9282849,13.3280741 L92.243718,13.3280741 L92.243718,9.16571852 L93.751577,9.16571852 C94.7251764,9.16571852 95.2123897,9.50244444 95.2123897,10.1758963 C95.2123897,10.4215704 95.143423,10.6291852 95.0062133,10.7962519 C94.869107,10.9633185 94.674718,11.0764593 94.4230463,11.1329778 C94.7528872,11.1725926 95.0070405,11.2831407 95.1854027,11.4646222 C95.3646956,11.6469333 95.453825,11.877363 95.453825,12.1549778 L95.453825,12.1549778 Z M94.424804,10.7658667 C94.5728706,10.6518963 94.6469038,10.4780889 94.6469038,10.2443407 C94.6469038,10.0198222 94.570389,9.8594963 94.4171526,9.76242963 C94.2640195,9.66536296 94.0419197,9.61807407 93.751577,9.61807407 L92.8057918,9.61807407 L92.8057918,10.9345926 L93.751577,10.9345926 C94.0520528,10.9345926 94.2766341,10.8789037 94.424804,10.7658667 L94.424804,10.7658667 Z M93.8542516,11.3752296 L92.8057918,11.3752296 L92.8057918,12.8757185 L93.8988163,12.8757185 C94.2422025,12.8757185 94.4929436,12.8115259 94.650316,12.6832444 C94.8067578,12.5558963 94.8858576,12.3642519 94.8858576,12.1111111 C94.8858576,11.6199704 94.5417477,11.3752296 93.8542516,11.3752296 L93.8542516,11.3752296 Z M86.4544411,10.5515111 C86.4544411,10.2443407 86.4637469,9.94888889 86.4806009,9.66536296 C86.3846471,10.0172296 86.2988265,10.2932889 86.2213811,10.4924 L85.1493463,13.3280741 L84.7556052,13.3280741 L83.6683709,10.4924 L83.5034505,9.98943704 L83.4058424,9.66536296 L83.4151482,9.99275556 L83.4269356,10.5515111 L83.4269356,13.3280741 L82.9262805,13.3280741 L82.9262805,9.16571852 L83.6650622,9.16571852 L84.7698742,12.052 C84.8094758,12.1676296 84.8473196,12.2916593 84.883509,12.4250222 C84.9196985,12.5583852 84.9441005,12.6546222 84.9558879,12.7136296 C84.9709841,12.6342963 85.0037614,12.5145185 85.0543232,12.3541926 C85.1039544,12.193763 85.1375589,12.0925481 85.1560672,12.052 L86.2398894,9.16571852 L86.9609899,9.16571852 L86.9609899,13.3280741 L86.4544411,13.3280741 L86.4544411,10.5515111 L86.4544411,10.5515111 Z M80.0619378,12.1111111 L78.1711945,12.1111111 L77.6940108,13.3280741 L77.1109472,13.3280741 L78.8038894,9.16571852 L79.4434085,9.16571852 L81.1103977,13.3280741 L80.5356059,13.3280741 L80.0619378,12.1111111 L80.0619378,12.1111111 Z M79.361,10.2966074 C79.3063022,10.1615852 79.2507773,10.008 79.1960795,9.83585185 L79.1169798,9.59111111 L79.0899928,9.67376296 C79.0411887,9.83751111 78.9679826,10.0467852 78.8721323,10.3033481 L78.3420087,11.6705778 L79.8944324,11.6705778 L79.361,10.2966074 L79.361,10.2966074 Z M72.262389,9.16571852 L75.4111808,9.16571852 L75.4111808,9.62657778 L72.8245662,9.62657778 L72.8245662,10.9616593 L75.2344729,10.9616593 L75.2344729,11.4165037 L72.8245662,11.4165037 L72.8245662,12.8673185 L75.5315365,12.8673185 L75.5315365,13.3280741 L72.262389,13.3280741 L72.262389,9.16571852 L72.262389,9.16571852 Z M69.5310166,13.3280741 L68.4531916,11.5996444 L67.1598843,11.5996444 L67.1598843,13.3280741 L66.5977072,13.3280741 L66.5977072,9.16571852 L68.5499725,9.16571852 C69.0177469,9.16571852 69.3787108,9.27035556 69.6328641,9.47973333 C69.8870174,9.69066667 70.014094,9.98186667 70.014094,10.3557185 C70.014094,10.6653778 69.924034,10.925363 69.7448445,11.1354667 C69.5647245,11.3465037 69.3172921,11.4798667 69.0009964,11.5347259 L70.1790145,13.3280741 L69.5310166,13.3280741 L69.5310166,13.3280741 Z M69.205415,10.9447556 C69.3678539,10.8064148 69.4486081,10.6122815 69.4486081,10.3624593 C69.4486081,10.1193778 69.3670268,9.93540741 69.2029335,9.80878519 C69.0388402,9.6805037 68.802368,9.61807407 68.4943442,9.61807407 L67.1598843,9.61807407 L67.1598843,11.1540296 L68.517919,11.1540296 C68.8141555,11.1540296 69.0439067,11.0848593 69.205415,10.9447556 L69.205415,10.9447556 Z M62.7952307,12.9230074 C63.3766399,12.9230074 63.8133948,12.6342963 64.1062191,12.0570815 L64.5656182,12.2883407 C64.3939769,12.6461185 64.154196,12.9195852 63.8453449,13.1061481 C63.5356667,13.2926074 63.1771844,13.3871852 62.7682437,13.3871852 C62.3509277,13.3871852 61.9890333,13.2993481 61.6835944,13.1255407 C61.3781555,12.9516296 61.1450954,12.7019111 60.9852415,12.377837 C60.8252842,12.053763 60.7453572,11.6705778 60.7453572,11.2274519 C60.7453572,10.5633333 60.9238228,10.0434667 61.2813745,9.66785185 C61.6390296,9.29234074 62.133791,9.10328889 62.7657621,9.10328889 C63.2074801,9.10328889 63.5769226,9.19019259 63.8730557,9.36317037 C64.1692921,9.53708148 64.387256,9.79364444 64.5269472,10.1346222 L63.9934114,10.3118519 C63.8974577,10.0696 63.7426703,9.8848 63.529773,9.75651852 C63.3168756,9.62823704 63.0644801,9.56404444 62.7716558,9.56404444 C62.3121533,9.56404444 61.9546016,9.71265185 61.6996211,10.0096593 C61.4446406,10.3051111 61.3167368,10.711837 61.3167368,11.2274519 C61.3167368,11.7380889 61.4497072,12.148237 61.7156479,12.4570667 C61.9814852,12.7676593 62.3416218,12.9230074 62.7952307,12.9230074 L62.7952307,12.9230074 Z M52.6177252,9.16571852 L55.766517,9.16571852 L55.766517,9.62657778 L53.179799,9.62657778 L53.179799,10.9616593 L55.5898091,10.9616593 L55.5898091,11.4165037 L53.179799,11.4165037 L53.179799,12.8673185 L55.8867693,12.8673185 L55.8867693,13.3280741 L52.6177252,13.3280741 L52.6177252,9.16571852 L52.6177252,9.16571852 Z M48.8143181,12.9230074 C49.3958308,12.9230074 49.8324823,12.6342963 50.1253066,12.0570815 L50.5848091,12.2883407 C50.4131678,12.6461185 50.1732834,12.9195852 49.8645358,13.1061481 C49.5548576,13.2926074 49.1963753,13.3871852 48.7874346,13.3871852 C48.3701186,13.3871852 48.0082242,13.2993481 47.7027852,13.1255407 C47.3973463,12.9516296 47.1642863,12.7019111 47.0044324,12.377837 C46.8444751,12.053763 46.7645481,11.6705778 46.7645481,11.2274519 C46.7645481,10.5633333 46.9429103,10.0434667 47.3005654,9.66785185 C47.6582205,9.29234074 48.1529819,9.10328889 48.784953,9.10328889 C49.226671,9.10328889 49.5961135,9.19019259 49.8922466,9.36317037 C50.188483,9.53708148 50.4064469,9.79364444 50.5460347,10.1346222 L50.0126023,10.3118519 C49.9166486,10.0696 49.7618612,9.8848 49.5489638,9.75651852 C49.3360665,9.62823704 49.083671,9.56404444 48.7908467,9.56404444 C48.3313442,9.56404444 47.9737925,9.71265185 47.718812,10.0096593 C47.4638315,10.3051111 47.3359277,10.711837 47.3359277,11.2274519 C47.3359277,11.7380889 47.468898,12.148237 47.7347354,12.4570667 C48.0006761,12.7676593 48.3608127,12.9230074 48.8143181,12.9230074 L48.8143181,12.9230074 Z M44.0306941,9.16571852 L44.5927679,9.16571852 L44.5927679,13.3280741 L44.0306941,13.3280741 L44.0306941,9.16571852 L44.0306941,9.16571852 Z" id="Shape" fill-opacity="0.3" fill="#000000" sketch:type="MSShapeGroup"></path>
        </g>
    </g>
</svg>

<svg width="150" height="60" xmlns="http://www.w3.org/2000/svg"><g id="Page-1" stroke="none" stroke-width="1" fill="none" fill-rule="evenodd"><g id="logo6_dark"><path d="M113.962 10.88h32.677v39.718h-143V10.879h32.669" id="Shape" stroke-opacity=".3" stroke="#000" stroke-width="3"/><path d="M122.924 28.309c.342.2 1.034.452 2.078.753 1.238.35 2.124.675 2.658.974.534.297.957.644 1.267 1.04.311.394.55.869.714 1.419.165.55.247 1.185.247 1.902 0 1.69-.468 2.981-1.404 3.874-.937.893-2.311 1.34-4.123 1.34-1.653 0-2.95-.392-3.889-1.175-.94-.783-1.543-1.97-1.812-3.561l2.608-.576c.177.914.522 1.577 1.034 1.989.513.412 1.223.618 2.133.618 1.884 0 2.827-.767 2.827-2.3 0-.49-.109-.894-.325-1.211a2.523 2.523 0 00-.915-.796c-.393-.212-1.148-.47-2.265-.77-.964-.303-1.635-.546-2.013-.73-.378-.182-.72-.4-1.025-.648a3.488 3.488 0 01-.778-.9 4.46 4.46 0 01-.499-1.235 6.72 6.72 0 01-.178-1.627c0-1.56.438-2.752 1.313-3.58.875-.828 2.15-1.243 3.82-1.243 1.6 0 2.8.335 3.602 1.005.802.668 1.319 1.774 1.55 3.316l-2.616.476c-.135-.742-.407-1.301-.82-1.676-.411-.375-1.002-.563-1.77-.563-1.635 0-2.453.686-2.453 2.056 0 .448.087.816.26 1.102.175.285.432.528.774.727zm-11.492.068l-.238-6.253h2.49l-.247 6.253h-2.005zm-9.597 10.99h-2.69v-7.075L94.55 22.124h2.827l3.093 7.293 3.13-7.293h2.827l-4.593 10.168v7.074zM87.93 32.58c-.704.476-1.541.716-2.511.716h-3.203v6.07h-2.7V22.123h5.793c1.544 0 2.732.475 3.565 1.425.832.95 1.248 2.295 1.248 4.033 0 1.108-.189 2.1-.567 2.974-.378.872-.92 1.547-1.625 2.025zm-2.923-7.654h-2.791v5.591h2.864c.744 0 1.318-.246 1.72-.74.403-.493.604-1.206.604-2.136 0-1.81-.799-2.715-2.397-2.715zM71.964 32.58c-.705.476-1.542.716-2.512.716h-3.203v6.07h-2.7V22.123h5.794c1.543 0 2.731.475 3.564 1.425.832.95 1.249 2.295 1.249 4.033 0 1.108-.19 2.1-.567 2.974-.38.872-.92 1.547-1.625 2.025zm-2.924-7.654h-2.79v5.591h2.864c.744 0 1.317-.246 1.72-.74.403-.493.604-1.206.604-2.136 0-1.81-.8-2.715-2.398-2.715zm-14.164-2.803h2.7v17.242h-2.7V22.124zm-8.684 9.851h-5.618v7.391h-2.7V22.124h2.7v6.865h5.618v-6.865h2.7v17.242h-2.7v-7.391zm-19.297 4.797c1.628 0 2.76-1.094 3.395-3.28l2.352 1.187c-.507 1.664-1.25 2.902-2.229 3.713-.98.812-2.151 1.22-3.518 1.22-2.074 0-3.677-.787-4.809-2.357-1.131-1.57-1.697-3.768-1.697-6.59 0-2.83.545-5.004 1.637-6.522 1.093-1.517 2.675-2.277 4.75-2.277 1.513 0 2.745.407 3.697 1.219.952.811 1.62 2.004 2.004 3.578l-2.38.87c-.2-.865-.596-1.552-1.184-2.063a3.08 3.08 0 00-2.082-.765c-1.22 0-2.146.507-2.777 1.518-.632 1.012-.948 2.493-.948 4.442 0 1.983.325 3.496.975 4.54.65 1.045 1.587 1.567 2.814 1.567zm78.415-25.236l1.178 1.793h-.648l-1.078-1.728h-1.293v1.728h-.562V9.166h1.952c.468 0 .829.104 1.083.314.254.21.381.502.381.876 0 .31-.09.57-.27.78-.18.21-.427.344-.743.399zm.202-1.726c-.164-.128-.4-.19-.709-.19h-1.334v1.535h1.358c.296 0 .526-.07.687-.21.163-.138.244-.332.244-.582 0-.243-.082-.427-.246-.553zm-5.469 2.302h-1.89l-.478 1.217h-.583l1.693-4.162h.64l1.667 4.162h-.575l-.474-1.217zm-.7-1.814a6.365 6.365 0 01-.166-.461l-.079-.245-.027.083a9.778 9.778 0 01-.218.63l-.53 1.367h1.553l-.534-1.374zm-3.89 1.858c0 .37-.134.658-.402.864-.27.206-.644.31-1.123.31h-1.684V9.165h1.508c.973 0 1.46.336 1.46 1.01a.947.947 0 01-.206.62c-.137.167-.331.28-.583.337.33.04.584.15.762.332a.94.94 0 01.269.69zm-1.028-1.39c.148-.113.222-.287.222-.52 0-.225-.077-.386-.23-.483-.153-.097-.375-.144-.665-.144h-.946v1.317h.946c.3 0 .525-.056.673-.17zm-.57.61h-1.05v1.5H93.9c.343 0 .594-.063.751-.192.157-.127.236-.319.236-.572 0-.491-.344-.736-1.032-.736zm-7.4-.823c0-.308.009-.603.026-.887a8.787 8.787 0 01-.26.827l-1.072 2.836h-.393l-1.088-2.836-.165-.503-.097-.324.01.328.01.559v2.776h-.5V9.166h.74l1.104 2.886a6.007 6.007 0 01.186.662c.015-.08.048-.2.098-.36a4 4 0 01.102-.302l1.084-2.886h.721v4.162h-.507v-2.776zm-6.393 1.56h-1.89l-.478 1.216h-.583l1.693-4.162h.64l1.666 4.162h-.574l-.474-1.217zm-.701-1.815a6.365 6.365 0 01-.165-.461l-.079-.245-.027.083c-.049.164-.122.373-.218.63l-.53 1.367h1.552l-.533-1.374zm-7.099-1.131h3.15v.46h-2.587v1.336h2.41v.455h-2.41v1.45h2.707v.461h-3.27V9.166zm-2.731 4.162L68.453 11.6H67.16v1.728h-.562V9.166h1.952c.468 0 .829.104 1.083.314.254.21.381.502.381.876 0 .31-.09.57-.27.78-.18.21-.427.344-.743.399l1.178 1.793h-.648zm-.326-2.383c.163-.139.244-.333.244-.583 0-.243-.082-.427-.246-.553-.164-.128-.4-.19-.709-.19H67.16v1.535h1.358c.296 0 .526-.07.687-.21zm-6.41 1.978c.582 0 1.018-.289 1.311-.866l.46.231a1.871 1.871 0 01-.72.818c-.31.187-.669.281-1.078.281-.417 0-.779-.088-1.084-.261a1.71 1.71 0 01-.699-.748c-.16-.324-.24-.707-.24-1.15 0-.665.179-1.185.536-1.56.358-.376.853-.565 1.485-.565.441 0 .81.087 1.107.26.296.174.514.43.654.772l-.534.177a1.102 1.102 0 00-.463-.555 1.44 1.44 0 00-.758-.193c-.46 0-.817.149-1.072.446-.255.295-.383.702-.383 1.217 0 .511.133.921.399 1.23.265.31.626.466 1.08.466zM52.618 9.166h3.149v.46H53.18v1.336h2.41v.455h-2.41v1.45h2.707v.461h-3.27V9.166zm-3.804 3.757c.582 0 1.018-.289 1.311-.866l.46.231a1.872 1.872 0 01-.72.818c-.31.187-.669.281-1.078.281-.417 0-.779-.088-1.084-.261a1.71 1.71 0 01-.699-.748c-.16-.324-.24-.707-.24-1.15 0-.665.179-1.185.537-1.56.357-.376.852-.565 1.484-.565.442 0 .811.087 1.107.26.296.174.514.43.654.772l-.533.177a1.102 1.102 0 00-.464-.555 1.44 1.44 0 00-.758-.193c-.46 0-.817.149-1.072.446-.255.295-.383.702-.383 1.217 0 .511.133.921.399 1.23.266.31.626.466 1.08.466zm-4.783-3.757h.562v4.162h-.562V9.166z" id="Shape" fill-opacity=".3" fill="#000"/></g></g></svg>
